X: 1939
T: Trip to Ottahite
C:Preston, (pub 1887)
B: australian traditional tunes wiki
M:6/8
L:1/8
R: Jig
Q: 3/8=100
K:G
V:1 
D|"G"G2GG2g|"Em"gfe"D"d2c|"G"BAG "D"AGF|"G"G2GG2:|
|:e|"C"ece ece|"G"dBd dBd|"C"cdc "G"BcB|"D"A2AA2D|
"G"G2GG2g|"Em"gfe"D"d2c|"G"BAG "D"AGF|"G"G2GG2:|
% abcbook-tune_id 6342d5be029cdb83dcaac68c


% abcbook-boost 0
% abcbook-tablature 
% abcbook-transpose 
% abcbook-lastupdated 1665324489032
% abcbook-soundfonts 
% abcbook-repeats 1
% NFF Book 2020
% Bush Traditions recording played by Roland Clarke

